X: 15194
T: Gillie Callum
R: strathspey
M: 4/4
K: Amixolydian
|:A<Ac>e d2 B>G|A<Ac>e d2 c>A|1 E<EG>B d2 B>G|
A<Ac>e dB e2:|2 BEBe d2 B>G|A<Ac>e B/c/d e2||
|:A<Ac>A g2 B>G|A<Ac>A a2 a>e|1 G2 g2 d2 B>G|
A<Ac>A dB e2:|2 g2 a/g/f/e/ d2 B>G|A<Ac>A B/c/d e2||
|:A<Ac>A AgBG|A<Ac>A AacA|1 aefd egBG|
A<Ac>e B/c/d e2|2 gbeg dgBG|A<Ac>E B/c/d e2||
|:A<Ac>A G/G/G BG|A<Ac>A A/A/A c>A|c>ABA G/G/G B>G|A<Ac>A B/c/d e2:|
|:A<Ac>e dgBG|A<Ac>e AacA|a/g/f/e/ fd gdBG|A<Ac>e B/c/d e2:|
|:A2 cA BGBG|A2 cA cAcA|cAcA BGBG|A<Ac>A B/c/d e2:|
|:A<Ac>e AgBG|A<Ac>e AacA|gaeg dgBb|gaeg dg e2:|

